X:59
T: Die Waescherin
N: A0059
O: Europa, Mitteleuropa, Deutschland
N: Melodie aus: 68 Lieder. Nuernberg von Berg und Newber c.1542 No.30.
R: Romanze, Ballade, Lied
M: 4/2
L: 1/4
K: G
 |  |  |  | G4G2G2 | d3cd2_B2 | A8 |
z2c2c2c2 | d3cB2A2 | G4z2
_B2 | c2A2_B2c2 | d2_B2A4 | z6
_B2 | c3_BA2G2 | _B2c2d2B2 | AGA_Bc2
d2 | _B3AGGG2 | c4A2
A2 | _B2c2de=fe | d2c3_BAGB2A2 | G8

@@@ Tune index: 59
